!!!COM:      Bach, Johann Sebastian
!!!CDT:      1685/03/31/-1750/07/28/
!!!OPR@@GER: Das wohltemperirte Clavier
!!!OVM@@GER: Band I
!!!OPR@ENG:  Well-Tempered Clavier
!!!OVM@ENG:  Book I
!!!OTL:      Prelude
!!!OKY:      C-sharp minor
!!!ONM:      no. 4
!!!SCT:      BWV 849
!!!OMV:      1
**kern	**kern	**kern	**kern	**kern
*clefF4	*clefF4	*clefF4	*	*clefG2
*k[f#c#g#d#]	*k[f#c#g#d#]	*k[f#c#g#d#]	*	*k[f#c#g#d#]
*c#:	*c#:	*c#:	*	*c#:
*M6/4	*M6/4	*M6/4	*	*M6/4
*MM122	*MM122	*MM122	*MM122	*MM122
=1-	=1-	=1-	=1-	=1-
[1.C#	1.ryy	2.ryy	1.ryy	8g#
.	.	.	.	8f#
.	.	.	.	8e
.	.	.	.	8d#
.	.	.	.	8e
.	.	.	.	8c#
.	.	2e 2g#	.	4.cc#
.	.	.	.	8b
.	.	4f#	.	4a
=2	=2	=2	=2	=2
.	.	.	.	8aQ
1.C#]	8G#	[2.e	1.ryy	[2.g#wp
.	8F#	.	.	.
.	8E	.	.	.
.	8D#	.	.	.
.	8E	.	.	.
.	8C#	.	.	.
.	8EQ	.	.	.
.	8G#Q	.	.	.
.	4.c#	2e]	.	2g#]
.	8B	.	.	.
.	4A	[4f#	.	4f#
=3	=3	=3	=3	=3
[2.BB#	[2.G#	2.f#]	1.ryy	8dd#
.	.	.	.	8cc#
.	.	.	.	8b#
.	.	.	.	8a#
.	.	.	.	8b#
.	.	.	.	8g#
2BB#]	2G#]	2g# 2dd#	.	4.gg#
.	.	.	.	8ff#
4C#	4c#	4g# 4cc#	.	4ee
=4	=4	=4	=4	=4
.	.	.	.	8eeQ
[1.G#	8d#	2.g# [2.b#	1.ryy	[2.dd#p
.	8c#	.	.	.
.	8B#X	.	.	.
.	8A#	.	.	.
.	8B#	.	.	.
.	8G#	.	.	.
.	8B#Q	.	.	.
.	8d#Q	.	.	.
.	4.f#	2g# 2b#]	.	2dd#]
.	8e	.	.	.
.	4d#	4g# 4b#	.	4gg#
=5	=5	=5	=5	=5
.	.	.	.	8dd#Q
2.G#]	2.e	4a	1.ryy	8cc#
.	.	.	.	8b#
.	.	4r	.	8cc#
.	.	.	.	8ee
.	.	4r	.	[4aa
[2.F#	[2.d#	2.a	.	8aa]
.	.	.	.	8gg#
.	.	.	.	8ff#
.	.	.	.	8ee
.	.	.	.	8dd#
.	.	.	.	8cc#
=6	=6	=6	=6	=6
.	.	.	.	8cc#Q
2.F#]	2.d#]	4g#	1.ryy	8b
.	.	.	.	8a
.	.	4r	.	8b
.	.	.	.	8dd#
.	.	4r	.	[4gg#
[2.E	[2.c#	2.g#	.	8gg#]
.	.	.	.	8ff#
.	.	.	.	8ee
.	.	.	.	8dd#
.	.	.	.	8cc#
.	.	.	.	8b
=7	=7	=7	=7	=7
.	.	.	.	8bQ
2.E]	2.c#]	4f#	1.ryy	8a
.	.	.	.	8g#
.	.	4r	.	8a
.	.	.	.	8cc#
.	.	4r	.	[4ff#
2.D#	[2.B	2.f#	.	8ff#]
.	.	.	.	8ee
.	.	.	.	8dd#
.	.	.	.	8cc#
.	.	.	.	8b
.	.	.	.	8a
=8	=8	=8	=8	=8
1.E	8B]	2.e	1.ryy	[2.g#w
.	8A	.	.	.
.	8G#	.	.	.
.	8F#	.	.	.
.	8G#	.	.	.
.	8E	.	.	.
.	8G#Q	.	.	.
.	8BQ	.	.	.
.	4.e	2.ryy	.	4.g#]
.	8d#	.	.	8f#
.	4c#	.	.	[4aM
=9	=9	=9	=9	=9
2.D#	[1.B#	1.ryy	1.ryy	8a]
.	.	.	.	8g#
.	.	.	.	8f#
.	.	.	.	8e
.	.	.	.	8f#
.	.	.	.	8d#
4.G#	.	.	.	8dd#
.	.	.	.	8cc#
.	.	.	.	8b#
8F#	.	.	.	8a#
4G#	.	.	.	8b#
.	.	.	.	8g#
=10	=10	=10	=10	=10
[2.C#	4.B#]	2.ryy	1.ryy	8aa
.	.	.	.	8gg#
.	.	.	.	8ff#
.	8c#	.	.	8ee
.	4d#	.	.	8ff#
.	.	.	.	8dd#
4.C#]	2.c#	8r	.	[2.ee
.	.	8dd#	.	.
.	.	8cc#	.	.
8D#	.	8b	.	.
4E	.	8cc#	.	.
.	.	8a#	.	.
=11	=11	=11	=11	=11
.	.	8g#Q	.	.
8AA#	1.ryy	4.f##	1.ryy	4.ee]
8D#	.	.	.	.
8C#	.	.	.	.
8BB	.	8g#	.	8dd#
8C#	.	4a#Xm	.	4cc#
8AA#	.	.	.	.
8FF##X	.	4.d#	.	4.cc#
8BB	.	.	.	.
8AA#X	.	.	.	.
8GG#	.	8e#	.	8b
8AA#	.	[4f##Xm	.	4a#
8FF##	.	.	.	.
=12	=12	=12	=12	=12
[2.CC#	1.ryy	8f##]	1.ryy	8a#
.	.	8ryy	.	8g#
.	.	4ryy	.	8f##
.	.	.	.	8e#
.	.	4ryy	.	8f##
.	.	.	.	8d#
8CC#]	.	2f##X 2a#	.	[2.dd#
8C#	.	.	.	.
8BB	.	.	.	.
8AA#X	.	.	.	.
8BB	.	[4g#	.	.
8GG#	.	.	.	.
=13	=13	=13	=13	=13
4.EM	2.ryy	2.g#_	1.ryy	8dd#]
.	.	.	.	8b#
.	.	.	.	8cc#
8D#	.	.	.	8dd#
4C#	.	.	.	8ee
.	.	.	.	8dd#
.	.	.	.	8cc#Q
2D#	[2.D#	2g#]	.	4.bn
.	.	.	.	8cc#
4DD#	.	4f##	.	4a#S
=14	=14	=14	=14	=14
[2.GG#	8D#]	2.B [2.d#	1.ryy	[2.g#
.	8C#	.	.	.
.	8BB	.	.	.
.	8AA#	.	.	.
.	8BB	.	.	.
.	8GG#	.	.	.
2.GG#]	8BB	2B 2d#]	.	2g#]
.	8D#	.	.	.
.	8G#	.	.	.
.	8E	.	.	.
.	8F#	4ryy	.	[4bM
.	8D#	.	.	.
=15	=15	=15	=15	=15
8C#	2.E	1.ryy	1.ryy	8b]
8D#	.	.	.	8g#
8C#	.	.	.	8a#
8BB	.	.	.	8cc#
8C#	.	.	.	[4ee
[8AA#	.	.	.	.
2.AA#]	4.F#M	.	.	8ee]
.	.	.	.	8dd#
.	.	.	.	8ee
.	8G#	.	.	8gg#
.	4A#X	.	.	4ff#
=16	=16	=16	=16	=16
*	*	*	*staff:6	*
*	*	*	*clefG2	*
*	*	*	*k[f#c#g#d#]	*
[2.BM	2.ryy	8r	2ryy	[2.dd#
.	.	8cc#	.	.
.	.	8b	.	.
.	.	8a#	.	.
.	.	8b	[4b	.
.	.	[8f#	.	.
8B]	2.d#	2.f#_	2b]	2dd#]
8B	.	.	.	.
8A	.	.	.	.
8G#	.	.	.	.
8A	.	.	4ryy	[4cc#
8F#	.	.	.	.
=17	=17	=17	=17	=17
8D#	2ryy	4f#]	1.ryy	8cc#]
8E	.	.	.	8a#
8D#	.	4ryy	.	8b#
8C#	.	.	.	8dd#
8D#	[4D#	4ryy	.	8ff#
8BB#	.	.	.	8gg#
4.GG#	2.D#]	2.ryy	.	8aan
.	.	.	.	8gg#
.	.	.	.	8ff#
8AA#	.	.	.	8ee
4BB#X	.	.	.	8ff#
.	.	.	.	8dd#
=18	=18	=18	=18	=18
[2.C#	2.ryy	8r	2ryy	[2.ee
.	.	8dd#	.	.
.	.	8cc#	.	.
.	.	8b#	.	.
.	.	8cc#	[4cc#	.
.	.	[8g#	.	.
8C#]	2.e	2.g#]	2.cc#]	2.ee_
8D#	.	.	.	.
8E	.	.	.	.
8F#	.	.	.	.
8G#	.	.	.	.
8A	.	.	.	.
=19	=19	=19	=19	=19
[2B	4r	1.ryy	1.ryy	8ee]
.	.	.	.	8ddn
.	8r	.	.	8ee#
.	8c#	.	.	8gg#
8B]	[4dn	.	.	[4bb
8B	.	.	.	.
2.E#	4d]	.	.	8bb]
.	.	.	.	8ddn
.	4G#	.	.	8cc#
.	.	.	.	8b
.	[4c#	.	.	8a
.	.	.	.	8g#
=20	=20	=20	=20	=20
1.F#	8c#]	1.ryy	1.ryy	[2.aM
.	8B	.	.	.
.	8A	.	.	.
.	8G#	.	.	.
.	8A	.	.	.
.	8F#	.	.	.
.	4.f#	.	.	8a]
.	.	.	.	8g#
.	.	.	.	8a
.	8e	.	.	8cc#
.	8d#	.	.	[4ff#
.	8c#	.	.	.
=21	=21	=21	=21	=21
4.G#	4.B	1.ryy	1.ryy	8ff#]
.	.	.	.	8ee
.	.	.	.	8dd#
8A	8c#	.	.	8cc#
4B	[4d#	.	.	8b
.	.	.	.	8a
.	.	.	.	8aQ
[2.E	4.d#]	.	.	8g#
.	.	.	.	8f#
.	.	.	.	8g#
.	8G#	.	.	8b
.	8c#	.	.	[4ee
.	8B#	.	.	.
=22	=22	=22	=22	=22
4.E]	[2.c#M	1.ryy	1.ryy	8ee]
.	.	.	.	8dd#
.	.	.	.	8cc#
8D#	.	.	.	8b
4C#	.	.	.	8a
.	.	.	.	8g#
.	.	.	.	8g#Q
2.D#	4.c#]	.	.	8f#
.	.	.	.	8e
.	.	.	.	8f#
.	8B#	.	.	8a
.	8c#	.	.	[4dd#
.	8A#	.	.	.
=23	=23	=23	=23	=23
4.G#	4.B#m	1.ryy	1.ryy	8dd#]
.	.	.	.	8cc#
.	.	.	.	8b#
8A#	8c#	.	.	8a#
4B#	4d#	.	.	8g#
.	.	.	.	8f#
.	.	.	.	8f#Q
4.c#	2.c#	.	.	8e
.	.	.	.	8d#
.	.	.	.	8e
8Bn	.	.	.	8g#
8An	.	.	.	[4cc#
8G#	.	.	.	.
=24	=24	=24	=24	=24
[2.F#	4.A	1.ryy	1.ryy	8cc#]
.	.	.	.	8b
.	.	.	.	8a
.	8B	.	.	8g#
.	4c#	.	.	8a
.	.	.	.	8f#
4.F#]	2.dnM	.	.	8ff#
.	.	.	.	8ee
.	.	.	.	8ddn
8E	.	.	.	8cc#
4F#	.	.	.	8dd
.	.	.	.	8a
=25	=25	=25	=25	=25
4.D#	2.B#	2.ryy	1.ryy	8aa
.	.	.	.	8gg#
.	.	.	.	8ff#
8F#	.	.	.	8ee
[4A	.	.	.	8ff#
.	.	.	.	8dd#X
8A]	4f#	[2.dd#	.	2bb#
8G#	.	.	.	.
8F#	4r	.	.	.
8E	.	.	.	.
8F#	4r	.	.	4gg#
8D#	.	.	.	.
=26	=26	=26	=26	=26
8E	1.ryy	4.dd#]	1.ryy	[2.gg#
8D#	.	.	.	.
8C#	.	.	.	.
8BB	.	8ee	.	.
8C#	.	4b#	.	.
8AA	.	.	.	.
[2.AM	.	[2.cc#	.	8gg#]
.	.	.	.	8ff#
.	.	.	.	8ee
.	.	.	.	8dd#
.	.	.	.	8ee
.	.	.	.	8cc#
=27	=27	=27	=27	=27
8A]	1.ryy	4.cc#]	1.ryy	[2.ff#
8G#	.	.	.	.
8F#	.	.	.	.
8E	.	8b#	.	.
8F#	.	4dd#	.	.
8D#	.	.	.	.
2.B#Xm	.	[2.g#	.	8ff#]
.	.	.	.	8ee
.	.	.	.	8dd#
.	.	.	.	8cc#
.	.	.	.	8dd#
.	.	.	.	8g#
=28	=28	=28	=28	=28
8c#	1.ryy	4.g#]	1.ryy	[2.ee
8Bn	.	.	.	.
8A	.	.	.	.
8G#	.	8cc#	.	.
8A	.	8f#	.	.
8F#	.	8g#	.	.
[2.f#	.	2.a	.	8ee]
.	.	.	.	8dd#
.	.	.	.	8ee
.	.	.	.	8ff#
.	.	.	.	8gg#
.	.	.	.	8aa
=29	=29	=29	=29	=29
8f#]	1.ryy	2.g#	1.ryy	4.b#w
8e	.	.	.	.
8d#	.	.	.	.
8c#	.	.	.	8cc#
8B#	.	.	.	4dd#
8A#	.	.	.	.
8G#	.	2.B#X 2.d#	.	[2.f#
8F#	.	.	.	.
8E	.	.	.	.
8D#	.	.	.	.
8C#	.	.	.	.
8BBn	.	.	.	.
=30	=30	=30	=30	=30
4.AA	1.ryy	1.ryy	1.ryy	8f#]
.	.	.	.	8e
.	.	.	.	8d#
8BB	.	.	.	8c#
4GG#	.	.	.	8d#
.	.	.	.	8B#
4.FF#	.	.	.	8a
.	.	.	.	8g#
.	.	.	.	8f#
8GG#	.	.	.	8e
4EE	.	.	.	8f#
.	.	.	.	8d#
=31	=31	=31	=31	=31
4.DD#	1.ryy	1.ryy	1.ryy	8b#
.	.	.	.	8an
.	.	.	.	8g#
8EE	.	.	.	8f#
4FF#	.	.	.	8g#
.	.	.	.	8d#
4.BBB#	.	.	.	8dd#
.	.	.	.	8cc#
.	.	.	.	8b#X
8DD#	.	.	.	8a#
4FF#	.	.	.	8b#
.	.	.	.	8g#
=32	=32	=32	=32	=32
8EE	1.ryy	1.ryy	1.ryy	4gg#
8E	.	.	.	.
8F#	.	.	.	8ff#
8G#	.	.	.	8ee
8A	.	.	.	8dd#
8F#	.	.	.	8cc#
8D#	.	.	.	8b#
8E	.	.	.	8cc#
8F#	.	.	.	8dd#
8D#	.	.	.	8ff#
8BB#	.	.	.	[4a
8C#	.	.	.	.
=33	=33	=33	=33	=33
8D#	1.ryy	1.ryy	1.ryy	8a]
8BB#	.	.	.	8g#
8GG#	.	.	.	8a
8AA#	.	.	.	8f#
8BB#X	.	.	.	[4aa
8C#	.	.	.	.
8D#	.	.	.	4aa]
8E	.	.	.	.
8F#	.	.	.	8gg#
8G#	.	.	.	8ff#
8A#X	.	.	.	8ee
8B#X	.	.	.	8dd#
=34	=34	=34	=34	=34
8c#	2.ryy	8r	1.ryy	[2ee
8Bn	.	8dd#	.	.
8An	.	8cc#	.	.
8G#	.	8b#	.	.
8A	.	4cc#	.	8ee]
8F#	.	.	.	8aa
2G#	[2.G#	2cc#	.	4.ee
.	.	.	.	8ff#
4GG#	.	4b#X	.	4dd#S
=35	=35	=35	=35	=35
[2.AA#	8G#]	8r	1.ryy	[2.cc#
.	8G#	8b	.	.
.	8F##	8a#X	.	.
.	8G#	8g#	.	.
.	8A#X	8f##X	.	.
.	8D#	8g#	.	.
.	.	8g#Q	.	.
4.AA#]	[2.E	[2.f##Xp	.	4.cc#]
8BB	.	.	.	8ee
4C#	.	.	.	4dd#
=36	=36	=36	=36	=36
[2.FF##	8E]	8f##X]	1.ryy	[2.ee
.	8D#	8g#	.	.
.	8C#	8a#	.	.
.	8BB	8g#	.	.
.	8C#	8b	.	.
.	8E	8a#X	.	.
4.FF##]	2.F##X	[2.a#	.	4.ee]
8GG#	.	.	.	8b#
4AA#X	.	.	.	4cc#
=37	=37	=37	=37	=37
*	*	*	*staff:2	*
2DD#	1.ryy	8a#]	8cc#	[2.ff##
.	.	8ryy	8dd#	.
.	.	4ryy	8ee	.
.	.	.	8dd#	.
4r	.	4ryy	8cc#	.
.	.	.	8b	.
2.r	.	8a#	2ryy	2ff##]
.	.	8g#	.	.
.	.	8f##	.	.
.	.	8e#	.	.
.	.	8f#	4b#	4gg#
.	.	8d#	.	.
=38	=38	=38	=38	=38
8r	2.ryy	8en	2.ryy	[2.cc#
8d#	.	8bn	.	.
8c#	.	8an	.	.
8B	.	8g#	.	.
8A	.	8f#	.	.
8F#	.	8a	.	.
8G#	2ryy	4.e	2ryy	4.cc#]
8D#	.	.	.	.
8E	.	.	.	.
8C#	.	8f#	.	8dd#
4GG#	8GG#	4d#	8d#	4b#
.	[8G#	.	[8f#	.
=39	=39	=39	=39	=39
[2.C#	4G#]	2c#	8f#]	[2cc#
.	.	.	8g#	.
.	4F#	.	8a	.
.	.	.	[8f#	.
.	4A	4d#	4f#]	8cc#]
.	.	.	.	8b#
2.C#]	2.G#	2.e#	2.g#	2.cc#
==	==	==	==	==
*-	*-	*-	*-	*-
!!!AFR:  prelude
!!!EFL:  07/96
!!!END:  1994/01/08/
!!!VID:  3053491700 Bach, BWV 849-01
!!!AST:  Baroque
!!!OCY:  Deutschland
!!!ODT:  1722///
!!!PDT:  1801///
!!!EED:  Walter Hewlett
!!!ENC:  Walter Hewlett
!!!YOR:  Bach Gesellschaft Edition xiv
!!!AFT:  enhanced SCORE
!!!RDT:  2011/10/07/ by Andreas Kornstaedt using massScr2hmd
!!!SCA1: Thematisch-systematisches Verzeichnis der musikalischen Werke 
!!!SCA2: Johann Sebastian Bach: Bach-Werke-Verzeichnis (Schmieder)
!!!YEC1: Copyright 1994, 2000 Center for Computer Assisted Research 
!!!YEC2: in the Humanities
!!!YEM1: Rights to all derivative editions reserved.
!!!YEM2: Refer to licensing agreement for further details.
!!!YEN:  United States of America
!!!ref:  @{OTL}, @{SCT}
!!muse2ps: T^@{OTL} @{ONM} in @{OKY}^C^J.S. Bach\n@{SCT}-@{OMV}^
!!muse2ps: u^@{OPR@ENG}, @{OVM@ENG}^j
